X:1
T:Ravensworth, 77.77
T:Ravensworth, 77.77
T:Charles Francis Ambrose Lloyd (1852-1917)
T:Public Domain Courtesy of the Cyber Hymnal™
C:Charles Francis Ambrose Lloyd (1852-1917)
Z:Public Domain
Z:Courtesy of the Cyber Hymnal™
%%score ( 1 2 ) ( 3 4 )
L:1/8
Q:1/4=110
M:4/4
K:F
V:1 treble 
V:2 treble 
V:3 bass 
V:4 bass 
V:1
 [Fc]2 [Fc]2 ([Fc][EB]) [FA]2 | [Fc]2 [Fc]2 [Fc]4 | [Fc]2 [FA]2 (AG) (AB) | [Fc]2 [FA]2 [EG]4 | %4
 [EG]2 [EG]2 [EG]2 [FA]2 | [GB]2 [Gd]2 [Gc]4 | [FA]2 [EA]2 [DG]2 [DF]2 | [FA]2 [EG]2 F4 |] %8
V:2
 x8 | x8 | x4 E2 E2 | x8 | x8 | x8 | x8 | x4 F4 |] %8
V:3
 [F,A,]2 [A,C]2 C2 [F,C]2 | [A,C]2 [G,B,]2 [F,A,]4 | [A,C]2 [F,C]2 [B,C]2 C2 | %3
 [A,C]2 [F,C]2 [C,C]4 | C2 C2 C2 [A,C]2 | [G,D]2 [F,B,]2 [E,G,]4 | %6
 [F,A,]2 [F,C]2 [B,,B,]2 [D,A,]2 | [C,C]2 [C,B,]2 [F,A,]4 |] %8
V:4
 x4 (A,G,) x2 | x8 | x6 (A,G,) | x8 | C2 C2 (CB,) x2 | x8 | x8 | x8 |] %8

